Lila_HD/places/scalable/folder-remote-symbolic.svg

<?xml version="1.0" encoding="UTF-8" standalone="no"?>
<!-- Created with Inkscape (http://www.inkscape.org/) -->

<svg
   xmlns:dc="http://purl.org/dc/elements/1.1/"
   xmlns:cc="http://creativecommons.org/ns#"
   xmlns:rdf="http://www.w3.org/1999/02/22-rdf-syntax-ns#"
   xmlns:svg="http://www.w3.org/2000/svg"
   xmlns="http://www.w3.org/2000/svg"
   xmlns:sodipodi="http://sodipodi.sourceforge.net/DTD/sodipodi-0.dtd"
   xmlns:inkscape="http://www.inkscape.org/namespaces/inkscape"
   version="1.1"
   width="16"
   height="16"
   id="svg13094"
   inkscape:version="0.48.3.1 r9886"
   sodipodi:docname="folder-web.svg"
   inkscape:export-filename="folder.png"
   inkscape:export-xdpi="90"
   inkscape:export-ydpi="90">
  <sodipodi:namedview
     pagecolor="#ffffff"
     bordercolor="#666666"
     borderopacity="1"
     objecttolerance="10"
     gridtolerance="10"
     guidetolerance="10"
     inkscape:pageopacity="0"
     inkscape:pageshadow="2"
     inkscape:window-width="1920"
     inkscape:window-height="1035"
     id="namedview6"
     showgrid="true"
     inkscape:snap-bbox="true"
     inkscape:bbox-paths="true"
     inkscape:bbox-nodes="true"
     inkscape:snap-bbox-edge-midpoints="true"
     inkscape:snap-bbox-midpoints="true"
     inkscape:object-paths="true"
     inkscape:snap-intersection-paths="true"
     inkscape:object-nodes="true"
     inkscape:snap-smooth-nodes="true"
     inkscape:snap-midpoints="true"
     inkscape:snap-object-midpoints="true"
     inkscape:snap-center="true"
     inkscape:zoom="29.5"
     inkscape:cx="8.8062485"
     inkscape:cy="5.5944557"
     inkscape:window-x="-2"
     inkscape:window-y="23"
     inkscape:window-maximized="1"
     inkscape:current-layer="svg13094"
     inkscape:snap-global="false">
    <inkscape:grid
       type="xygrid"
       id="grid2983" />
  </sodipodi:namedview>
  <defs
     id="defs7" />
  <metadata
     id="metadata13099">
    <rdf:RDF>
      <cc:Work
         rdf:about="">
        <dc:format>image/svg+xml</dc:format>
        <dc:type
           rdf:resource="http://purl.org/dc/dcmitype/StillImage" />
        <dc:title />
      </cc:Work>
    </rdf:RDF>
  </metadata>
  <path
     style="fill:#999999;fill-opacity:0.912371161;stroke:none"
     d="M 8 0 C 3.581722 2.3684758e-15 0 3.581722 0 8 C 0 12.418278 3.581722 16 8 16 C 12.418278 16 16 12.418278 16 8 C 16 3.581722 12.418278 -1.1842379e-15 8 0 z M 8.125 2.25 C 8.3314 2.331091 8.5436 2.4187636 8.75 2.5 C 8.7805454 2.6467636 8.6061362 2.8835909 8.5625 3.0625 C 8.3820636 3.3957364 8.50355 3.2921591 8.71875 3.28125 C 8.9700227 3.3968136 8.6146182 3.6279546 8.5 3.5625 C 8.3507637 3.3327546 8.3457227 3.3386182 8.03125 3.5 C 7.7436135 3.6482182 7.3428954 3.6208954 7.21875 3.96875 C 7.1329318 4.159659 6.8525 4.3425955 6.8125 4.03125 C 6.7608636 3.8524864 6.4998908 3.6296727 6.75 3.5 C 6.9443999 3.3591273 6.8391095 3.064 6.625 3 C 6.5059455 2.8782545 6.1130863 2.8092681 6.40625 2.65625 C 6.2893771 2.6489772 5.9774455 2.7899318 5.8125 2.84375 C 5.4777364 2.8190227 6.0002727 2.9164318 6.125 2.90625 C 6.2378726 3.0538863 6.3270092 3.2834091 6.5625 3.3125 C 6.3329728 3.7002818 6.0568864 3.3052682 5.78125 3.15625 C 5.5517955 3.0115227 5.3404954 3.2238273 5.21875 3.4375 C 5.34195 3.2781545 5.6111591 3.2760952 5.65625 3.46875 C 5.693341 3.7528955 5.3297319 3.5511 5.21875 3.4375 C 5.19475 3.480409 5.170069 3.5188636 5.15625 3.5625 C 4.9757415 3.7494819 4.7811137 3.5551682 4.96875 3.34375 C 5.1432227 3.2131318 5.2471365 3.0375182 5.1875 2.8125 C 5.2624821 2.5933 5.3562636 3.2312866 5.4375 2.78125 C 5.6644092 2.755069 5.8210455 2.5414319 6.0625 2.53125 C 6.2740637 2.52398 6.3568045 2.3030228 6.59375 2.34375 C 6.7904772 2.371386 6.7216322 2.4713955 6.65625 2.53125 C 6.675886 2.52398 6.67366 2.549432 6.71875 2.53125 C 7.1737318 2.3815046 7.6483454 2.2878182 8.125 2.25 z M 10.84375 3.28125 L 10.875 3.28125 C 11.031872 3.342341 11.2062 3.4178636 11.375 3.4375 C 11.611436 3.43023 11.822472 3.5617773 11.5 3.65625 C 11.122691 3.585704 11.4177 3.7862273 11.5625 3.9375 C 11.743373 3.959318 11.821964 3.3772955 12 3.71875 C 13.025528 4.6666773 13.807272 5.94935 14 7.34375 C 13.779416 7.7871682 13.597709 6.9986273 13.25 7.1875 C 13.089346 7.108955 12.945455 6.7624321 13 7.15625 C 12.98691 7.34745 13.267532 7.4469136 13.34375 7.59375 C 13.516987 7.2117863 13.701341 7.6221277 13.65625 7.875 C 13.56403 8.0984182 13.323109 8.2434364 13.125 8.375 C 12.839109 8.5802364 12.673531 8.7821636 13.1875 8.625 C 13.2064 8.9346727 12.962345 9.2109818 12.875 9.5 C 12.657836 9.6858909 12.5391 9.9250275 12.4375 10.1875 C 12.42077 10.519209 12.39454 10.863137 12.5 11.1875 C 12.44109 11.398264 12.145164 11.494796 12 11.65625 C 11.655127 11.775087 12.272436 11.929918 12 12.0625 C 11.719127 12.165772 11.926946 12.385432 11.75 12.53125 C 11.591309 12.651686 11.506778 12.936068 11.28125 12.90625 C 11.050123 12.83861 10.919136 13.131591 10.6875 13.0625 C 10.69768 12.7129 10.632941 12.384536 10.5 12.0625 C 10.333233 11.706572 10.289626 11.265231 10.46875 10.90625 C 10.52257 10.719705 10.258441 10.556768 10.34375 10.34375 C 10.43764 10.115096 10.204978 10.012477 10.15625 9.84375 C 10.24578 9.6411318 10.278796 9.4461 10.0625 9.3125 C 9.8378452 9.410027 9.68565 9.1254905 9.53125 9.25 C 9.3378045 9.5363996 9.2581136 9.1246727 9.09375 9.375 C 8.8005136 9.6640909 8.4697591 8.88825 8.28125 8.65625 C 8.238341 8.47225 7.9870631 8.2849273 8.1875 8.125 C 8.4331728 7.9541636 8.0855414 7.85545 8.28125 7.65625 C 8.4149955 7.1831591 8.8143818 6.8315136 9.125 6.46875 C 9.4868909 6.3712954 9.8554771 6.2460318 10.21875 6.40625 C 10.365732 6.5311227 10.511087 6.7448636 10.65625 6.8125 C 10.75036 6.6164272 11.011427 6.6011727 11.1875 6.6875 C 11.370991 6.741318 11.625032 6.8345545 11.78125 6.6875 C 11.978632 6.5659 12.070268 6.3721363 11.78125 6.3125 C 11.394341 6.4688636 11.336172 5.8457682 11.0625 5.96875 C 11.048681 6.2331137 10.956959 6.3941864 10.78125 6.09375 C 10.746341 5.8933864 10.684386 5.694091 10.46875 5.625 C 10.317331 5.667182 10.800968 5.8897727 10.5625 6.0625 C 10.315809 6.3156636 10.428068 6.0341042 10.40625 5.90625 C 10.196354 5.8800682 10.161501 5.5302864 9.9375 5.65625 C 9.7128455 5.6489773 9.7047273 5.8778637 9.5 5.9375 C 9.4643636 6.1662273 9.3125135 6.2819318 9.09375 6.34375 C 8.9595682 6.1593136 8.7271183 6.2632955 8.8125 5.96875 C 8.7362819 5.7323137 9.0304591 5.6148409 9.21875 5.59375 C 9.5126408 5.643932 9.23116 5.2783864 9.15625 5.21875 C 9.36425 5.204932 9.5254364 5.1294274 9.625 4.9375 C 9.613364 4.6287728 10.0727 4.8535091 9.9375 4.625 C 10.002955 4.3370728 10.05225 4.567523 10.15625 4.65625 C 10.373632 4.7801043 10.536955 4.6634884 10.6875 4.5 C 10.7115 4.3382545 11.138813 4.125 11.03125 4.125 C 10.65925 4.3111091 10.758273 3.8657545 10.875 3.6875 C 10.686782 3.670773 10.558131 3.8533818 10.46875 4 C 10.52111 4.1436363 10.51383 4.4549091 10.375 4.5 C 10.18343 4.463636 10.087632 4.1027318 9.90625 4.34375 C 9.73665 4.5566955 9.7121818 4.04795 9.75 3.96875 C 9.8908 3.8344954 10.216614 3.8074455 10.15625 3.5625 C 10.351232 3.3921 10.596986 3.3328864 10.84375 3.28125 z M 4.46875 3.4375 C 4.6889682 3.420045 4.8465818 3.5192359 4.75 3.75 C 4.5838909 4.0472363 4.2265681 4.15495 3.96875 4.34375 C 3.96875 4.5967682 4.182709 4.6415863 4.375 4.71875 C 4.5309999 4.8188954 4.4634223 5.2346591 4.59375 4.84375 C 4.652659 4.6268773 4.9813771 4.7016454 4.90625 4.4375 C 5.0226862 4.2996091 5.0981727 3.9248318 5.3125 4.15625 C 5.5840636 4.206432 5.2913999 4.56455 5.625 4.34375 C 5.8794 4.293568 5.6664904 4.7325681 5.875 4.71875 C 6.1374 4.787841 5.8902866 5.0624545 6.15625 5.125 C 6.0191591 5.4374364 5.9644091 5.2989596 5.9375 5.03125 C 5.7409182 5.10725 5.5577137 5.1846136 5.34375 5.15625 C 5.1990955 5.23545 4.7710136 5.38375 5.15625 5.34375 C 5.3511591 5.35175 5.7099364 5.2753951 5.4375 5.53125 C 5.3507364 5.7839778 4.9592909 5.5879682 4.875 5.84375 C 4.8146363 6.0886228 4.4477044 5.9766409 4.40625 6.21875 C 4.3640681 6.4498045 4.2071772 6.5852227 4.03125 6.71875 C 3.8007773 6.8349681 3.8982955 7.1354591 3.84375 7.34375 C 3.7132773 7.1979319 3.6357045 6.9571136 3.40625 6.96875 C 3.2236318 6.941114 3.1500317 7.1628182 2.90625 7.125 C 2.7241409 7.2479818 2.5341365 7.3794 2.5625 7.625 C 2.5225 7.8292909 2.6198958 8.0625 2.84375 8.0625 C 3.0273864 7.939009 3.3793819 7.5276636 3.25 8.0625 C 2.9777819 8.5528272 3.6509818 8.0835638 3.5 8.5 C 3.448364 8.8002182 3.8778683 9.0482318 4.03125 8.78125 C 4.1947409 8.6726682 4.3213091 8.3828909 4.5 8.625 C 4.6578183 8.8130727 4.9077637 8.7913818 5.125 8.75 C 5.2934364 8.766 5.2784909 9.0525909 5.375 9.1875 C 5.6035819 9.204955 5.7557727 9.323809 5.8125 9.5625 C 6.1015182 9.8673 6.5721909 9.9615366 6.9375 10.1875 C 6.912045 10.387864 6.9448109 10.602363 6.78125 10.75 C 6.56445 10.930873 6.6875 11.227878 6.6875 11.46875 C 6.5861182 11.633623 6.5982231 11.925159 6.34375 11.90625 C 6.1443319 11.89895 5.9610227 12.144573 6.09375 12.3125 C 6.002841 12.494464 5.9656409 12.725982 5.84375 12.875 C 5.5809864 12.875654 5.5627591 13.14045 5.40625 13.28125 C 5.364795 13.769614 4.8055046 13.288541 4.53125 13.09375 C 4.546523 12.888005 4.6191595 12.678278 4.65625 12.46875 C 4.5539222 12.282278 4.4927045 12.087654 4.53125 11.875 C 4.6032499 11.612382 4.403332 11.436378 4.21875 11.28125 C 3.955332 11.116741 3.8607864 10.793214 3.71875 10.53125 C 3.5509682 10.352559 3.6123 10.175222 3.6875 9.96875 C 3.597827 9.7866409 3.8255682 9.6581318 3.84375 9.46875 C 3.893932 9.3187864 4.0732496 9.002159 3.78125 9.03125 C 3.57965 9.101068 3.4221954 8.8654182 3.28125 8.75 C 3.154995 8.4761091 2.8189135 8.5370136 2.59375 8.40625 C 2.3288045 8.2669772 2.0832727 8.1266091 2 7.8125 C 2.1570182 6.4725727 2.7273773 5.2021682 3.65625 4.21875 C 3.84505 3.8023864 4.3833682 3.8596091 4.46875 3.4375 z M 9.0625 3.9375 C 9.2835181 3.872773 9.259459 4.1109454 9.34375 4.25 C 9.468841 4.4593091 9.6546591 4.5904363 9.34375 4.75 C 9.04455 4.8897818 9.0893409 4.7086041 9.15625 4.46875 C 9.2315229 4.2499863 9.0239541 4.1426636 9.0625 3.9375 z M 8.71875 4.25 C 8.740568 4.24273 8.749978 4.271795 8.78125 4.28125 C 8.816886 4.4330318 8.9769821 4.5065 8.75 4.5625 C 8.6142915 4.6819906 8.5655863 4.2987273 8.71875 4.25 z M 11.9375 7.0625 C 11.803682 7.133773 11.89316 7.2650364 11.90625 7.375 C 12.034759 7.7057637 12.313182 7.9650591 12.375 8.34375 C 12.291 8.6316773 12.92105 8.818959 12.65625 8.53125 C 12.531014 8.3779409 12.782109 8.1871545 12.5 8.0625 C 12.310109 7.7303545 12.234373 7.3258454 11.9375 7.0625 z "
     id="path5619" />
</svg>

<?xml version="1.0" encoding="UTF-8"?>
<!-- Created with Inkscape (http://www.inkscape.org/) -->
<svg version="1.1" viewBox="0 0 16 16" xmlns="http://www.w3.org/2000/svg" xmlns:cc="http://creativecommons.org/ns#" xmlns:dc="http://purl.org/dc/elements/1.1/" xmlns:rdf="http://www.w3.org/1999/02/22-rdf-syntax-ns#">
<metadata>
<rdf:RDF>
<cc:Work rdf:about="">
<dc:format>image/svg+xml</dc:format>
<dc:type rdf:resource="http://purl.org/dc/dcmitype/StillImage"/>
<dc:title/>
</cc:Work>
</rdf:RDF>
</metadata>
<path d="m8 0c-4.4183 2.3685e-15 -8 3.5817-8 8s3.5817 8 8 8 8-3.5817 8-8-3.5817-8-8-8zm0.125 2.25c0.2064 0.081091 0.4186 0.16876 0.625 0.25 0.030545 0.14676-0.14386 0.38359-0.1875 0.5625-0.18044 0.33324-0.05895 0.22966 0.15625 0.21875 0.25127 0.11556-0.10413 0.3467-0.21875 0.28125-0.14924-0.22975-0.15428-0.22388-0.46875-0.0625-0.28764 0.14822-0.68835 0.1209-0.8125 0.46875-0.085818 0.19091-0.36625 0.37385-0.40625 0.0625-0.051636-0.17876-0.31261-0.40158-0.0625-0.53125 0.1944-0.14087 0.08911-0.436-0.125-0.5-0.11905-0.12175-0.51191-0.19073-0.21875-0.34375-0.11687-0.0072728-0.4288 0.13368-0.59375 0.1875-0.33476-0.024727 0.18777 0.072682 0.3125 0.0625 0.11287 0.14764 0.20201 0.37716 0.4375 0.40625-0.22953 0.38778-0.50561-0.0072318-0.78125-0.15625-0.22945-0.14473-0.44075 0.067577-0.5625 0.28125 0.1232-0.15935 0.39241-0.1614 0.4375 0.03125 0.037091 0.28415-0.32652 0.08235-0.4375-0.03125-0.024 0.042909-0.048681 0.081364-0.0625 0.125-0.18051 0.18698-0.37514-0.0073318-0.1875-0.21875 0.17447-0.13062 0.27839-0.30623 0.21875-0.53125 0.074982-0.2192 0.16876 0.41879 0.25-0.03125 0.22691-0.026181 0.38355-0.23982 0.625-0.25 0.21156-0.00727 0.2943-0.22823 0.53125-0.1875 0.19673 0.027636 0.12788 0.12765 0.0625 0.1875 0.019636-0.00727 0.01741 0.018182 0.0625 0 0.45498-0.14975 0.9296-0.24343 1.4062-0.28125zm2.7188 1.0312h0.03125c0.15687 0.061091 0.3312 0.13661 0.5 0.15625 0.23644-0.00727 0.44747 0.12428 0.125 0.21875-0.37731-0.070546-0.0823 0.12998 0.0625 0.28125 0.18087 0.021818 0.25946-0.5602 0.4375-0.21875 1.0255 0.94793 1.8073 2.2306 2 3.625-0.22058 0.44342-0.40229-0.34512-0.75-0.15625-0.16065-0.078545-0.30454-0.42507-0.25-0.03125-0.01309 0.1912 0.26753 0.29066 0.34375 0.4375 0.17324-0.38196 0.35759 0.028378 0.3125 0.28125-0.09222 0.22342-0.33314 0.36844-0.53125 0.5-0.28589 0.20524-0.45147 0.40716 0.0625 0.25 0.0189 0.30967-0.22516 0.58598-0.3125 0.875-0.21716 0.18589-0.3359 0.42503-0.4375 0.6875-0.01673 0.33171-0.04296 0.67564 0.0625 1-0.05891 0.21076-0.35484 0.3073-0.5 0.46875-0.34487 0.11884 0.27244 0.27367 0 0.40625-0.28087 0.10327-0.073054 0.32293-0.25 0.46875-0.15869 0.12044-0.24322 0.40482-0.46875 0.375-0.23113-0.06764-0.36211 0.22534-0.59375 0.15625 0.01018-0.3496-0.054559-0.67796-0.1875-1-0.16677-0.35593-0.21037-0.79727-0.03125-1.1562 0.05382-0.18654-0.21031-0.34948-0.125-0.5625 0.09389-0.22865-0.13877-0.33127-0.1875-0.5 0.08953-0.20262 0.12255-0.39765-0.09375-0.53125-0.22465 0.097527-0.37685-0.18701-0.53125-0.0625-0.19345 0.2864-0.27314-0.12533-0.4375 0.125-0.29324 0.28909-0.62399-0.48675-0.8125-0.71875-0.042909-0.184-0.29419-0.37132-0.09375-0.53125 0.24567-0.17084-0.10196-0.26955 0.09375-0.46875 0.13375-0.47309 0.53313-0.82474 0.84375-1.1875 0.36189-0.097455 0.73048-0.22272 1.0938-0.0625 0.14698 0.12487 0.29234 0.33861 0.4375 0.40625 0.09411-0.19607 0.35518-0.21133 0.53125-0.125 0.18349 0.053818 0.43753 0.14705 0.59375 0 0.19738-0.1216 0.28902-0.31536 0-0.375-0.38691 0.15636-0.44508-0.46673-0.71875-0.34375-0.013819 0.26436-0.10554 0.42544-0.28125 0.125-0.034909-0.20036-0.096864-0.39966-0.3125-0.46875-0.15142 0.042182 0.33222 0.26477 0.09375 0.4375-0.24669 0.25316-0.13443-0.028396-0.15625-0.15625-0.2099-0.026182-0.24475-0.37596-0.46875-0.25-0.22465-0.0072727-0.23277 0.22161-0.4375 0.28125-0.035636 0.22873-0.18749 0.34443-0.40625 0.40625-0.13418-0.18444-0.36663-0.080454-0.28125-0.375-0.076218-0.23644 0.21796-0.35391 0.40625-0.375 0.29389 0.050182 0.01241-0.31536-0.0625-0.375 0.208-0.013818 0.36919-0.089323 0.46875-0.28125-0.011636-0.30873 0.4477-0.083991 0.3125-0.3125 0.065455-0.28793 0.11475-0.057477 0.21875 0.03125 0.21738 0.12385 0.3807 0.0072384 0.53125-0.15625 0.024-0.16175 0.45131-0.375 0.34375-0.375-0.372 0.18611-0.27298-0.25925-0.15625-0.4375-0.18822-0.016727-0.31687 0.16588-0.40625 0.3125 0.05236 0.14364 0.04508 0.45491-0.09375 0.5-0.19157-0.036364-0.28737-0.39727-0.46875-0.15625-0.1696 0.21295-0.19407-0.2958-0.15625-0.375 0.1408-0.13425 0.46661-0.1613 0.40625-0.40625 0.19498-0.1704 0.44074-0.22961 0.6875-0.28125zm-6.375 0.15625c0.22022-0.017455 0.37783 0.081736 0.28125 0.3125-0.16611 0.29724-0.52343 0.40495-0.78125 0.59375 0 0.25302 0.21396 0.29784 0.40625 0.375 0.156 0.10015 0.088422 0.51591 0.21875 0.125 0.058909-0.21687 0.38763-0.1421 0.3125-0.40625 0.11644-0.13789 0.19192-0.51267 0.40625-0.28125 0.27156 0.050182-0.0211 0.4083 0.3125 0.1875 0.2544-0.050182 0.04149 0.38882 0.25 0.375 0.2624 0.069091 0.015287 0.3437 0.28125 0.40625-0.13709 0.31244-0.19184 0.17396-0.21875-0.09375-0.19658 0.076-0.37979 0.15336-0.59375 0.125-0.14465 0.0792-0.57274 0.2275-0.1875 0.1875 0.19491 8e-3 0.55369-0.068355 0.28125 0.1875-0.086764 0.25273-0.47821 0.056718-0.5625 0.3125-0.060364 0.24487-0.4273 0.13289-0.46875 0.375-0.042182 0.23105-0.19907 0.36647-0.375 0.5-0.23047 0.11622-0.13295 0.41671-0.1875 0.625-0.13047-0.14582-0.20805-0.38664-0.4375-0.375-0.18262-0.027636-0.25622 0.19407-0.5 0.15625-0.18211 0.12298-0.37211 0.2544-0.34375 0.5-0.04 0.20429 0.057396 0.4375 0.28125 0.4375 0.18364-0.12349 0.53563-0.53484 0.40625 0-0.27222 0.49033 0.40098 0.021064 0.25 0.4375-0.051636 0.30022 0.37787 0.54823 0.53125 0.28125 0.16349-0.10858 0.29006-0.39836 0.46875-0.15625 0.15782 0.18807 0.40776 0.16638 0.625 0.125 0.16844 0.016 0.15349 0.30259 0.25 0.4375 0.22858 0.017455 0.38077 0.13631 0.4375 0.375 0.28902 0.3048 0.75969 0.39904 1.125 0.625-0.025455 0.20036 0.0073109 0.41486-0.15625 0.5625-0.2168 0.18087-0.09375 0.47788-0.09375 0.71875-0.10138 0.16487-0.089277 0.45641-0.34375 0.4375-0.19942-0.0073-0.38273 0.23832-0.25 0.40625-0.090909 0.18196-0.12811 0.41348-0.25 0.5625-0.26276 6.54e-4 -0.28099 0.26545-0.4375 0.40625-0.041455 0.48836-0.60075 0.007291-0.875-0.1875 0.015273-0.20574 0.08791-0.41547 0.125-0.625-0.10233-0.18647-0.16355-0.3811-0.125-0.59375 0.072-0.26262-0.12792-0.43862-0.3125-0.59375-0.26342-0.16451-0.35796-0.48804-0.5-0.75-0.16778-0.17869-0.10645-0.35603-0.03125-0.5625-0.089673-0.18211 0.13807-0.31062 0.15625-0.5 0.050182-0.14996 0.2295-0.46659-0.0625-0.4375-0.2016 0.069818-0.35905-0.16583-0.5-0.28125-0.12626-0.27389-0.46234-0.21299-0.6875-0.34375-0.26495-0.13927-0.51048-0.27964-0.59375-0.59375 0.15702-1.3399 0.72738-2.6103 1.6562-3.5938 0.1888-0.41636 0.72712-0.35914 0.8125-0.78125zm4.5938 0.5c0.22102-0.064727 0.19696 0.17345 0.28125 0.3125 0.12509 0.20931 0.31091 0.34044 0 0.5-0.2992 0.13978-0.25441-0.041396-0.1875-0.28125 0.075273-0.21876-0.1323-0.32609-0.09375-0.53125zm-0.34375 0.3125c0.021818-0.00727 0.031228 0.021795 0.0625 0.03125 0.035636 0.15178 0.19573 0.22525-0.03125 0.28125-0.13571 0.11949-0.18441-0.26377-0.03125-0.3125zm3.2188 2.8125c-0.13382 0.071273-0.04434 0.20254-0.03125 0.3125 0.12851 0.33076 0.40693 0.59006 0.46875 0.96875-0.084 0.28793 0.54605 0.47521 0.28125 0.1875-0.12524-0.15331 0.12586-0.3441-0.15625-0.46875-0.18989-0.33215-0.26563-0.73665-0.5625-1z" fill="#999" fill-opacity=".91237"/>
</svg>
